assets/icons/24px/graphics-and-design.svg

<svg width="24" height="24" viewBox="0 0 24 24" fill="none" xmlns="http://www.w3.org/2000/svg">
<path d="M21.6916 12.7227C22.082 12.3322 22.0889 11.6922 21.7069 11.2931C21.325 10.894 20.6989 10.8869 20.3084 11.2774L21.6916 12.7227ZM14.8084 16.7774C14.418 17.1678 14.4111 17.8078 14.7931 18.2069C15.175 18.6061 15.8011 18.6131 16.1916 18.2227L14.8084 16.7774ZM16.1916 18.2227L21.6916 12.7227L20.3084 11.2774L14.8084 16.7774L16.1916 18.2227Z" fill="white"/>
<path d="M14 19.9504C14 20.7424 12.5457 21.2176 10.1218 20.9008C9.59031 20.8313 10.9628 20.584 11.0913 19.9504C11.2198 19.3168 11.5001 19 12.3033 19C13.1065 19 14 19.4255 14 19.9504Z" fill="white" stroke="white"/>
<path d="M7 18C7.55228 18 8 17.5523 8 17C8 16.4477 7.55228 16 7 16V18ZM16 9C16 9.55228 16.4477 10 17 10C17.5523 10 18 9.55228 18 9H16ZM5 5H15V3H5V5ZM4 15V6H2V15H4ZM7 16H5V18H7V16ZM16 6V9H18V6H16ZM2 15C2 16.6569 3.34315 18 5 18V16C4.44772 16 4 15.5523 4 15H2ZM15 5C15.5523 5 16 5.44772 16 6H18C18 4.34315 16.6569 3 15 3V5ZM5 3C3.34315 3 2 4.34315 2 6H4C4 5.44772 4.44772 5 5 5V3Z" fill="white"/>
<path d="M10 13L7.23099 10.495C6.82488 10.1276 6.17202 10.1277 5.76609 10.4953L2.99999 13" stroke="white" stroke-width="2" stroke-linecap="round" stroke-linejoin="round"/>
<path d="M17 9.00001L13.6648 7.33242C13.2684 7.1342 12.7778 7.19248 12.4496 7.4768L8.37336 11.0079" stroke="white" stroke-width="2" stroke-linecap="round" stroke-linejoin="round"/>
</svg>

<svg width="24" height="24" fill="none" xmlns="http://www.w3.org/2000/svg"><path d="M21.692 12.723c.39-.39.397-1.03.015-1.43a.974.974 0 0 0-1.399-.016l1.384 1.446zm-6.884 4.054c-.39.39-.397 1.03-.015 1.43a.974.974 0 0 0 1.399.016l-1.384-1.446zm1.384 1.446l5.5-5.5-1.384-1.446-5.5 5.5 1.384 1.446z" fill="#fff"/><path d="M14 19.95c0 .792-1.454 1.268-3.878.95-.532-.069.84-.316.97-.95.128-.633.408-.95 1.211-.95.803 0 1.697.425 1.697.95z" fill="#fff" stroke="#fff"/><path d="M7 18a1 1 0 1 0 0-2v2zm9-9a1 1 0 1 0 2 0h-2zM5 5h10V3H5v2zM4 15V6H2v9h2zm3 1H5v2h2v-2zm9-10v3h2V6h-2zM2 15a3 3 0 0 0 3 3v-2a1 1 0 0 1-1-1H2zM15 5a1 1 0 0 1 1 1h2a3 3 0 0 0-3-3v2zM5 3a3 3 0 0 0-3 3h2a1 1 0 0 1 1-1V3z" fill="#fff"/><path d="M10 13l-2.769-2.505a1.111 1.111 0 0 0-1.465 0L3 13m14-4l-3.335-1.668a1.116 1.116 0 0 0-1.215.145l-4.077 3.53" stroke="#fff" stroke-width="2" stroke-linecap="round" stroke-linejoin="round"/></svg>
